X:5700
T:Runcorn (Mona's Delight)
O:england
M:4/4
L:1/8
K:G
D2|G2GA B2AG|A2AB c2BA|G2GB d2B2|G2AF D2D2|
G2GA B2AG|A2AB c2BA|BdBG AcAF|G2G2G4|]
d2dc Bc d2|c2cB AB c2|d2dc BcdB|A2F2D4|
d2dc Bc d2|c2cB AB c2|BdBG AcAF|G2G2G4|]


